X: 9
M: C
L: 1/8
K: G
e3(f/g/) edcB | A2A>A A2D2 |\
bgec B2TA2 |
b>aga b2(d>c) | B>cd>e d2(gf) |\
(fe)(c'b) (ba)(ag) | gfef d2zd |\
e>fec (c'>ba)>c |
d>edB (b>ag)d |\
(gf)(ba) gfgd | edcB A2 (ab/c'/) |\
bgfa d2AB/c/ | BGFA D2 (ab/c'/) |\
bgec B2TA2 | G2G>G G2 :|


